X:23
T:Donegal Reel
R:Reel
M:4/4
L:1/8
K:D
|:D2 DE F2FA|BFEF BFAF|E2 EF G2GA|BdAF GFEF|
D2 DE F2FA|BFEF ABde|f2 fe dBAG| FDEc D4:||
|:defg afdf|afdf a2 gf|edef gfed|cdef g2 fe|defg afdf|afdf a2 ag|
fdec dBAG|(3FGA) EF D4:||
